!!!OTL: Der Tod als Erloeser 'Mich drueckt's und darf's nicht sagen,
!!!ARE: Europa, Mitteleuropa, Deutschland (BRD), Baden, Zell am Wiesental
!!!YOR: 5, S. 314
!!    1930 aufgezeichnet
!!!SCT: Q0120
!!!YEM: Copyright 1995, estate of Helmut Schaffrath.
**kern
*ICvox
*Ivox
*M6/8
*k[]
*C:
{8G
=1
4c
8E
4A
8G
=2
8G
8F
4.r}
{8B
=3
4d
8F
4A
8G
=4
4.E
4r}
{16G
16G
=5
4e
8d
4c
8B
=6
8B
8A
4.r}
{16c
16A
=7
4G
8c
4e
8d
=8
4.c
4r}
==
!!!AGN: Ballade, Klage am Grab, Geist, Tod
!! Grundton in der zweigestrichenen Oktave.
!!!ONB: ESAC (Essen Associative Code) Database: BALLADE
!!!AMT: compound duple
!!!AIN: vox
!!!EED: Helmut Schaffrath
!!!EEV: 1.0
*-
